src/images/mediaLogos/lightTheme/FleetLeasing.svg

<svg width="117" height="14" viewBox="0 0 117 14" fill="none" xmlns="http://www.w3.org/2000/svg">
<path d="M94.9786 1.37165C95.323 1.37165 95.6513 1.31449 95.9459 1.39071C96.1482 1.44347 96.3328 1.65893 96.4736 1.84067C97.3999 3.02788 98.3101 4.22681 99.2305 5.41842C100.151 6.61002 101.052 7.75472 101.954 8.92727C102.383 9.4857 102.788 10.0632 103.213 10.6245C103.326 10.725 103.45 10.8116 103.584 10.8825V1.38631H104.903C104.912 1.56073 104.925 1.71462 104.925 1.86852C104.925 5.54642 104.925 9.22432 104.925 12.9022C104.925 13.5178 104.571 13.7567 103.995 13.4753C103.71 13.3289 103.46 13.1224 103.263 12.87C102.347 11.7194 101.455 10.5483 100.557 9.38457L97.7722 5.78924C97.3706 5.26892 96.9778 4.74273 96.5703 4.22681C96.4823 4.15328 96.3834 4.09394 96.2772 4.05093V13.0136C96.2772 13.5222 96.2772 13.5339 95.77 13.531C94.8906 13.531 94.9419 13.657 94.9434 12.7175C94.9492 9.05039 94.9492 5.38617 94.9434 1.72488C94.9551 1.61349 94.9683 1.50796 94.9786 1.37165Z" fill="#3A3A3A"/>
<path d="M113.051 7.70073H116.737V8.38813C116.737 9.59293 116.737 10.7992 116.737 12.0055C116.737 12.2986 116.604 12.4525 116.363 12.5991C115.597 13.052 114.751 13.3567 113.872 13.4975C113.196 13.6162 112.485 13.54 111.792 13.5708C110.831 13.6118 109.878 13.3849 109.038 12.9156C107.937 12.3123 107.063 11.3673 106.546 10.2232C105.931 8.90406 105.935 7.54537 106.02 6.16762C106.052 5.6517 106.25 5.13285 106.438 4.64037C106.71 3.88316 107.171 3.20773 107.776 2.67782C108.314 2.23992 108.905 1.87112 109.535 1.58002C110.892 0.929252 112.359 1.03771 113.785 1.19307C114.773 1.30153 115.66 1.77935 116.438 2.41839C116.475 2.4477 116.532 2.50926 116.522 2.52978C116.406 2.83448 116.258 3.12626 116.082 3.4004C116.018 3.48834 115.727 3.48688 115.585 3.42385C115.214 3.26263 114.883 3.01199 114.512 2.85516C113.486 2.41546 112.46 2.23225 111.313 2.44917C110.315 2.63678 109.476 3.03544 108.809 3.73458C108.183 4.3956 107.754 5.20026 107.698 6.14856C107.668 6.67475 107.484 7.20533 107.531 7.71832C107.678 9.36722 108.211 10.8652 109.73 11.7534C110.294 12.087 110.919 12.3045 111.568 12.3931C112.217 12.4817 112.877 12.4396 113.51 12.2693C114.026 12.1435 114.533 11.9834 115.028 11.79C115.116 11.7482 115.194 11.6868 115.254 11.6106C115.315 11.5344 115.357 11.4454 115.379 11.3503C115.415 10.6336 115.399 9.91392 115.393 9.19573C115.393 8.92165 115.228 8.80879 114.965 8.81025C114.489 8.81025 114.013 8.79706 113.538 8.81025C113.193 8.82198 113.039 8.68274 113.054 8.33977C113.058 8.13311 113.051 7.92938 113.051 7.70073Z" fill="#3A3A3A"/>
<path d="M71.3262 13.2793C72.9384 9.32196 74.539 5.36461 76.1703 1.35302C76.6759 1.35302 77.1963 1.33397 77.7122 1.36768C77.8236 1.37501 77.9643 1.55528 78.0214 1.68573C78.3517 2.45082 78.6702 3.22177 78.9771 3.99859C79.1984 4.55408 79.386 5.12423 79.6102 5.67973C79.8345 6.23523 80.1027 6.78925 80.3328 7.35061C80.5629 7.91197 80.7725 8.49239 80.9895 9.06107C81.2034 9.60484 81.4292 10.1442 81.649 10.6865C81.8234 11.1189 81.992 11.5542 82.1708 11.9851C82.3496 12.416 82.5431 12.8645 82.7644 13.379C82.2148 13.4156 81.7091 13.5256 81.2181 13.2852C81.1226 13.2158 81.0517 13.1177 81.0158 13.0052C80.7051 12.2724 80.4002 11.5264 80.0969 10.7862C80.0705 10.7202 80.0749 10.6396 80.0499 10.5751C79.9356 10.2629 79.7861 10.0343 79.3816 10.0387C77.8324 10.0563 76.2817 10.0533 74.731 10.0387C74.3675 10.0387 74.13 10.1618 73.9981 10.5018C73.705 11.2757 73.4045 12.0467 73.129 12.825C72.9824 13.2529 72.8358 13.398 72.3741 13.4112C72.0502 13.423 71.7263 13.4112 71.4039 13.4112L71.3262 13.2793ZM76.95 3.00632C76.8108 3.43283 76.7214 3.75528 76.5997 4.06601C76.3066 4.8223 75.9944 5.57567 75.6866 6.32757C75.4477 6.91384 75.1663 7.48399 74.9772 8.08639C74.8863 8.37953 74.5375 8.64628 74.772 9.0171H79.3537C78.7675 7.04575 77.8265 5.2752 77.2432 3.3786C77.2138 3.26428 77.0907 3.17927 76.95 3.00632Z" fill="#3A3A3A"/>
<path d="M70.3544 1.24565V2.48855H64.5209V6.67016C64.7012 6.68189 64.8566 6.70241 65.0105 6.70241H68.8579C69.3313 6.70241 69.3431 6.7156 69.3431 7.20221V7.83392H64.5371V12.231H70.369C70.3828 12.6072 70.3769 12.9839 70.3515 13.3596C70.3427 13.4299 70.1037 13.5208 69.9704 13.5223C68.5296 13.534 67.0888 13.5296 65.6495 13.5296C64.88 13.5296 64.1106 13.5179 63.3425 13.5296C63.0142 13.5369 62.916 13.3991 62.916 13.0899C62.916 9.25172 62.916 5.41358 62.916 1.57543C62.916 1.33212 62.979 1.18263 63.2634 1.18409C65.5342 1.18409 67.8046 1.18409 70.0744 1.18409C70.1688 1.1993 70.2623 1.21985 70.3544 1.24565V1.24565Z" fill="#3A3A3A"/>
<path d="M18.7343 6.69898H23.4568C23.4817 7.07859 23.5051 7.43183 23.533 7.84075H18.7475V12.2378H24.5971C24.6107 12.6121 24.6049 12.9869 24.5795 13.3605C24.5707 13.4309 24.3347 13.5262 24.2028 13.5276C22.9951 13.5408 21.7859 13.535 20.5782 13.535C19.5786 13.535 18.5775 13.5262 17.5764 13.535C17.2598 13.535 17.1367 13.4236 17.1367 13.1114C17.1367 9.2742 17.1367 5.43751 17.1367 1.60132C17.1367 1.33603 17.2129 1.19239 17.5105 1.19386C19.7676 1.19386 22.0248 1.19386 24.2819 1.19386C24.3805 1.20213 24.4784 1.21682 24.5751 1.23783V2.4778H18.7343V6.69898Z" fill="#3A3A3A"/>
<path d="M25.866 1.23342C26.0566 1.21876 26.1988 1.19824 26.3424 1.19824H32.897C33.4085 1.19824 33.4319 1.22463 33.4305 1.73615C33.4305 1.83289 33.4305 1.93255 33.4305 2.02929C33.4671 2.38545 33.2956 2.49978 32.957 2.49831C31.2847 2.48952 29.6123 2.49831 27.94 2.49831C27.7729 2.49831 27.6058 2.51883 27.408 2.53202C27.3918 2.69324 27.3698 2.82516 27.3684 2.95121C27.3684 4.04754 27.3772 5.14974 27.361 6.24021C27.361 6.58905 27.4842 6.7151 27.8315 6.71216C29.1507 6.70044 30.4698 6.71216 31.7889 6.71216H32.2433V7.83195C32.0879 7.84074 31.9501 7.85393 31.8035 7.8554H27.8843C27.4446 7.8554 27.3698 7.92282 27.3698 8.36106C27.3698 9.49453 27.3698 10.6275 27.3698 11.76C27.3698 11.8802 27.383 12.0004 27.3933 12.1777C27.5789 12.2167 27.7669 12.2427 27.9561 12.2554C29.6153 12.2554 31.2759 12.2554 32.9395 12.2554C33.4099 12.2554 33.4363 12.2847 33.4349 12.7537C33.4349 13.5364 33.4349 13.5364 32.6522 13.5364H26.3541C25.8675 13.5364 25.8455 13.5188 25.8455 13.0542C25.8455 9.2649 25.8455 5.4761 25.8455 1.68778C25.8411 1.55001 25.8558 1.4181 25.866 1.23342Z" fill="#3A3A3A"/>
<path d="M90.0815 3.39106C89.8149 3.27938 89.5576 3.14656 89.3121 2.99386C88.5924 2.46474 87.7995 2.20385 86.9113 2.32257C85.8354 2.46914 85.0176 3.15801 84.9384 4.22797C84.8828 4.99306 85.4837 5.60425 86.0509 5.87247C86.6958 6.17733 87.3847 6.38692 88.0442 6.66247C88.6564 6.90053 89.2536 7.17561 89.8324 7.48619C90.1048 7.64083 90.3367 7.8579 90.5089 8.11958C90.6812 8.38125 90.7889 8.68006 90.8232 8.99145C90.8569 9.22889 90.9785 9.45754 90.9903 9.69352C91.068 11.2076 90.0244 12.7803 88.6071 13.3167C87.6544 13.6773 86.6518 13.6523 85.6889 13.5072C84.7206 13.3581 83.8249 12.9049 83.1313 12.213C82.973 12.0577 82.9422 11.958 83.1195 11.8056C83.2026 11.7177 83.2736 11.6191 83.3306 11.5124C83.5666 11.1548 83.8524 11.0918 84.21 11.3336C84.7896 11.7608 85.4359 12.0892 86.1227 12.3054C87.0666 12.5721 88.4678 12.2116 89.0614 11.3791C89.5627 10.6785 89.6697 9.91337 89.2593 9.14389C89.1113 8.86813 88.8841 8.643 88.6071 8.49752C88.0501 8.2293 87.4448 8.05781 86.8702 7.82623C86.0978 7.51404 85.2492 7.36454 84.5925 6.80025C83.9359 6.23596 83.5123 5.60571 83.5666 4.71164C83.5885 4.34815 83.5035 3.95681 83.6076 3.62264C83.7476 3.16969 83.9665 2.74498 84.254 2.36801C85.0572 1.34203 86.1843 1.06208 87.4433 1.0914C88.3667 1.11191 89.23 1.27754 90.0258 1.76854C90.6473 2.15109 90.7162 2.34163 90.3498 2.96308C90.2823 3.0774 90.2164 3.17707 90.0815 3.39106Z" fill="#3A3A3A"/>
<path d="M6.90229 6.93252V8.12998C6.67951 8.11972 6.49044 8.1036 6.2999 8.1036C5.02963 8.1036 3.75937 8.1036 2.48911 8.1036C1.90283 8.1036 1.81929 8.18714 1.81929 8.78075V13.3244H0.207031C0.207031 9.43884 0.207031 5.59141 0.207031 1.74545C0.207031 1.18848 0.207031 1.17676 0.781581 1.17676H7.33614C7.85499 1.17676 7.87404 1.19875 7.87111 1.71027C7.87111 2.40061 7.87111 2.39914 7.16319 2.39914C5.61249 2.39914 4.06179 2.39914 2.51256 2.39914C2.2801 2.41919 2.04969 2.45841 1.82368 2.5164V3.34011C1.82368 4.35144 1.82368 5.36276 1.82368 6.37409C1.82368 6.86216 1.87352 6.91346 2.37332 6.91346H6.43914C6.58131 6.912 6.72495 6.92372 6.90229 6.93252Z" fill="#3A3A3A"/>
<path d="M40.052 13.298H38.4178V2.51345H34.5117V1.20459H44.0387V2.47827H40.115C40.0612 2.69745 40.0239 2.92038 40.0037 3.14516C39.9978 6.29932 39.9978 9.45348 40.0037 12.6076C40.0022 12.8231 40.033 13.0386 40.052 13.298Z" fill="#3A3A3A"/>
<path d="M46.0796 6.14177L46.04 5.94243C45.4069 5.77828 45.1401 5.27848 44.8865 4.76988C44.6813 4.36242 44.6623 3.91978 44.6594 3.46689C44.6488 3.08683 44.7397 2.71083 44.9226 2.37751C45.1055 2.04419 45.3738 1.76557 45.7 1.57029C46.1307 1.28614 46.6167 1.09651 47.126 1.0139C47.6354 0.931285 48.1564 0.957566 48.6548 1.09101C49.0315 1.18041 49.3877 1.23758 49.6808 1.51752C49.7277 1.56442 49.8391 1.5439 49.9358 1.55563C49.9622 1.40906 49.9871 1.28154 50.0106 1.15256L50.1044 1.16136V3.49034L50.0311 3.51379C49.9384 3.27159 49.8625 3.0233 49.8039 2.77068C49.7057 2.18441 49.3188 1.84144 48.8498 1.56442C48.3485 1.27128 47.7769 1.27129 47.2551 1.37828C46.933 1.44152 46.6317 1.58359 46.3779 1.79179C46.1242 1.99999 45.926 2.26783 45.8011 2.57135C45.6212 3.00643 45.5673 3.48338 45.6458 3.94763C45.741 4.75376 46.1221 5.43237 46.8462 5.83544C47.1686 6.01425 47.579 6.04503 48.0187 6.16522C47.9296 6.22529 47.8337 6.27449 47.7329 6.31179C47.3885 6.37188 47.0352 6.39387 46.6967 6.47741C46.399 6.55166 46.1197 6.68623 45.8762 6.87279C45.6327 7.05936 45.43 7.29395 45.2808 7.56202C44.8544 8.31373 44.6462 9.16957 44.6799 10.0332C44.7282 11.3244 45.2662 12.3783 46.4578 12.9352C47.1986 13.2957 48.0357 13.4082 48.8454 13.2562C49.4448 13.1434 50.0179 13.0232 50.5221 12.6963C50.8668 12.4889 51.16 12.2062 51.3798 11.8694C51.5996 11.5326 51.7403 11.1503 51.7914 10.7514C51.938 9.66968 51.6126 8.82251 50.7302 8.19373C50.4045 7.9522 50.0043 7.83279 49.5995 7.85637C49.1947 7.87994 48.8111 8.045 48.5156 8.32271C48.3456 8.49126 48.2796 8.77268 48.1887 9.01012C48.1601 9.12464 48.1463 9.24237 48.1477 9.36041L48.0216 9.41318C47.9528 9.29739 47.8194 9.17867 47.8267 9.06728C47.8736 8.289 48.0715 7.57374 48.8908 7.25422C49.3058 7.08458 49.737 6.95739 50.1777 6.87461C50.7991 6.76908 51.4338 6.7427 52.0611 6.67088C53.0504 6.55948 53.496 6.12564 53.688 5.10846C53.7092 5.04676 53.7393 4.98849 53.7774 4.9355L53.8976 4.9443C53.8976 5.35616 53.8785 5.77095 53.8976 6.1828C53.9372 6.86288 53.5473 7.30552 53.0182 7.57961C52.6532 7.77014 52.1886 7.78187 51.765 7.84783C51.5538 7.86397 51.3416 7.86397 51.1304 7.84783L51.0952 7.94896C51.2425 8.08762 51.382 8.23442 51.5129 8.38866C51.9275 8.93177 52.1548 9.59469 52.1608 10.2779C52.2047 11.5853 51.5906 12.4999 50.528 13.1331C50.1278 13.372 49.6134 13.4101 49.1751 13.5948C48.4555 13.8997 47.7007 13.8645 46.9766 13.7487C45.7264 13.5494 44.5421 13.1448 43.7873 12.003C43.4941 11.5633 43.2391 11.1148 43.2494 10.5637C43.2596 10.0126 43.1629 9.44103 43.2992 8.92657C43.5396 8.01638 44.013 7.20146 44.8572 6.69287C45.2546 6.48754 45.6626 6.30358 46.0796 6.14177V6.14177Z" fill="#3A3A3A"/>
<path d="M10.6475 12.2436H15.9474C15.963 12.5968 15.9576 12.9506 15.9313 13.3032C15.921 13.3912 15.7158 13.5172 15.5956 13.5202C14.9126 13.5407 14.2296 13.5304 13.5437 13.5304H9.48224C9.07624 13.5304 8.95605 13.4088 8.95605 13.013C8.95605 9.24817 8.95605 5.4838 8.95605 1.71991C8.95605 1.62464 8.96778 1.53084 8.97657 1.40039H10.5331V1.97494C10.5331 5.19946 10.5331 8.42739 10.5331 11.6587C10.5542 11.8566 10.5924 12.0523 10.6475 12.2436V12.2436Z" fill="#3A3A3A"/>
<path d="M54.7471 1.3877H56.2128C56.2216 1.57677 56.2377 1.74386 56.2377 1.90948C56.2377 5.16135 56.2377 8.41274 56.2377 11.6636C56.2377 12.1796 56.2758 12.2235 56.802 12.225C58.253 12.225 59.7055 12.225 61.1565 12.225C61.3236 12.225 61.4922 12.244 61.712 12.2558C61.712 12.6207 61.7252 12.9564 61.712 13.292C61.6974 13.5544 61.4775 13.5265 61.2958 13.5265H56.7155C56.1659 13.5265 55.6177 13.5265 55.0681 13.5265C54.8248 13.5265 54.7119 13.4415 54.7119 13.1865C54.7119 9.31414 54.7119 5.44179 54.7119 1.56944C54.7201 1.50823 54.7319 1.44755 54.7471 1.3877V1.3877Z" fill="#3A3A3A"/>
<path d="M92.1807 1.39307H93.7035C93.7123 1.53964 93.7255 1.66422 93.7255 1.7932C93.7255 5.55611 93.728 9.31804 93.7328 13.079C93.7328 13.4073 93.6346 13.5539 93.2931 13.5304C93.0132 13.5114 92.7259 13.5583 92.4533 13.5114C92.336 13.4909 92.1602 13.312 92.1602 13.205C92.1602 11.4286 92.1777 9.65075 92.1836 7.87434C92.1836 6.0349 92.1836 4.19546 92.1836 2.35602L92.1807 1.39307Z" fill="#3A3A3A"/>
</svg>

<svg width="117" height="14" fill="none" xmlns="http://www.w3.org/2000/svg"><path d="M94.979 1.372c.344 0 .672-.058.967.019.202.052.387.268.528.45.926 1.187 1.836 2.386 2.757 3.577.92 1.192 1.821 2.337 2.723 3.51.429.558.834 1.135 1.259 1.696.113.101.237.188.371.258V1.386h1.319c.009.175.022.329.022.483v11.033c0 .616-.354.855-.93.573a2.209 2.209 0 0 1-.732-.605c-.916-1.15-1.808-2.322-2.706-3.485l-2.785-3.596c-.401-.52-.794-1.046-1.202-1.562a1.103 1.103 0 0 0-.293-.176v8.963c0 .508 0 .52-.507.517-.88 0-.828.126-.827-.814.006-3.667.006-7.33 0-10.992.012-.112.025-.217.036-.353zM113.05 7.7h3.686v4.304c0 .294-.133.447-.374.594a7.104 7.104 0 0 1-2.491.899c-.676.118-1.387.042-2.08.073a5.192 5.192 0 0 1-2.754-.655 5.786 5.786 0 0 1-2.492-2.693c-.615-1.319-.611-2.678-.526-4.055.032-.516.23-1.035.418-1.528a4.74 4.74 0 0 1 1.338-1.962 8.304 8.304 0 0 1 1.759-1.098c1.357-.65 2.824-.542 4.25-.387.988.109 1.875.586 2.653 1.225.037.03.094.091.084.112a4.723 4.723 0 0 1-.44.87c-.064.088-.355.087-.497.024-.371-.161-.702-.412-1.073-.569-1.026-.44-2.052-.623-3.199-.406-.998.188-1.837.586-2.504 1.286-.626.66-1.055 1.465-1.111 2.414-.03.526-.214 1.056-.167 1.57.147 1.648.68 3.146 2.199 4.034a4.917 4.917 0 0 0 3.78.516 11.946 11.946 0 0 0 1.518-.479.634.634 0 0 0 .351-.44c.036-.716.02-1.436.014-2.154 0-.274-.165-.387-.428-.386-.476 0-.952-.013-1.427 0-.345.012-.499-.127-.484-.47.004-.207-.003-.41-.003-.64zm-41.725 5.578c1.612-3.957 3.213-7.914 4.844-11.926.506 0 1.026-.019 1.542.015.112.007.252.187.31.318.33.765.648 1.536.955 2.313.221.555.409 1.125.633 1.68.225.556.493 1.11.723 1.672.23.561.44 1.141.657 1.71.213.544.44 1.083.659 1.626.174.432.343.867.522 1.298.179.431.372.88.593 1.394-.55.037-1.055.147-1.546-.094a.555.555 0 0 1-.202-.28c-.31-.733-.616-1.479-.92-2.219-.026-.066-.021-.146-.046-.21-.114-.313-.264-.542-.668-.537-1.55.017-3.1.014-4.651 0-.363 0-.601.123-.733.463-.293.774-.594 1.545-.869 2.323-.147.428-.293.573-.755.586-.324.012-.648 0-.97 0l-.078-.132zM76.95 3.006c-.14.427-.229.75-.35 1.06-.293.756-.606 1.51-.913 2.262-.24.586-.52 1.156-.71 1.758-.09.294-.44.56-.205.931h4.582c-.587-1.971-1.528-3.742-2.11-5.638-.03-.115-.153-.2-.294-.373zm-6.596-1.76v1.243h-5.833V6.67c.18.012.336.032.49.032h3.847c.473 0 .485.014.485.5v.632h-4.806v4.397h5.832c.014.376.008.753-.017 1.129-.01.07-.248.16-.382.162-1.44.012-2.881.008-4.32.008-.77 0-1.54-.012-2.308 0-.328.007-.426-.13-.426-.44V1.575c0-.243.063-.392.347-.39h6.811c.095.014.188.035.28.06zm-51.62 5.453h4.723l.076 1.142h-4.786v4.397h5.85c.014.374.008.749-.018 1.123-.008.07-.244.165-.376.167-1.208.013-2.417.007-3.625.007-1 0-2-.009-3.002 0-.316 0-.44-.111-.44-.424V1.601c0-.265.077-.409.375-.407h6.77c.1.008.197.023.294.044v1.24h-5.84v4.221zm7.132-5.466c.19-.014.333-.035.476-.035h6.555c.511 0 .535.027.534.538v.293c.036.356-.135.47-.474.47-1.672-.01-3.345 0-5.017 0-.167 0-.334.02-.532.033-.016.161-.038.293-.04.42 0 1.096.01 2.198-.007 3.288 0 .35.123.475.47.472 1.32-.012 2.639 0 3.958 0h.454v1.12c-.155.009-.293.022-.44.023h-3.919c-.44 0-.514.068-.514.506v3.399c0 .12.013.24.023.418.186.039.374.065.563.077h4.984c.47 0 .496.03.495.499 0 .782 0 .782-.783.782h-6.298c-.486 0-.508-.017-.508-.482V1.688c-.005-.138.01-.27.02-.455zm64.216 2.158a5.426 5.426 0 0 1-.77-.397c-.72-.53-1.513-.79-2.4-.671-1.077.146-1.894.835-1.974 1.905-.055.765.546 1.376 1.113 1.644.645.305 1.334.515 1.993.79.612.239 1.21.514 1.788.824a1.98 1.98 0 0 1 .991 1.505c.034.238.156.467.167.703.078 1.514-.966 3.086-2.383 3.623-.953.36-1.955.335-2.918.19a4.616 4.616 0 0 1-2.558-1.294c-.158-.155-.189-.255-.011-.407.083-.088.154-.187.21-.294.237-.357.522-.42.88-.178.58.427 1.226.755 1.913.971.944.267 2.345-.093 2.938-.926.502-.7.609-1.466.198-2.235a1.567 1.567 0 0 0-.652-.646c-.557-.269-1.162-.44-1.737-.672-.772-.312-1.62-.461-2.278-1.026-.656-.564-1.08-1.194-1.025-2.088.022-.364-.063-.755.04-1.09.14-.452.36-.877.647-1.254.803-1.026 1.93-1.306 3.19-1.277.923.02 1.786.187 2.582.678.621.382.69.573.324 1.194-.068.114-.134.214-.268.428zM6.901 6.933V8.13c-.222-.01-.412-.026-.602-.026H2.49c-.587 0-.67.083-.67.677v4.543H.206V1.745c0-.557 0-.568.575-.568h6.554c.519 0 .538.022.535.533 0 .69 0 .69-.708.69h-4.65c-.233.02-.463.058-.69.116V6.374c0 .488.05.54.55.54H6.44c.142-.002.286.01.463.019zm33.15 6.365h-1.634V2.513h-3.906V1.205h9.527v1.273h-3.924a4.48 4.48 0 0 0-.111.667c-.006 3.154-.006 6.308 0 9.463-.002.215.029.43.048.69zm6.028-7.156l-.04-.2c-.633-.164-.9-.664-1.154-1.172-.205-.408-.224-.85-.227-1.303A2.14 2.14 0 0 1 45.7 1.57a3.65 3.65 0 0 1 2.955-.479c.377.09.733.147 1.026.427.047.046.158.026.255.038.026-.147.051-.274.075-.403l.093.008v2.33l-.073.023a5.652 5.652 0 0 1-.227-.743c-.098-.587-.485-.93-.954-1.207-.502-.293-1.073-.293-1.595-.186a1.986 1.986 0 0 0-1.454 1.193c-.18.435-.234.912-.155 1.377.095.806.476 1.484 1.2 1.887.323.18.733.21 1.173.33-.09.06-.185.11-.286.147-.344.06-.698.082-1.036.165a2.24 2.24 0 0 0-1.416 1.085 4.642 4.642 0 0 0-.601 2.471c.048 1.291.586 2.345 1.778 2.902.74.36 1.578.473 2.387.321.6-.113 1.173-.233 1.677-.56a2.665 2.665 0 0 0 1.27-1.945c.146-1.081-.18-1.928-1.062-2.557a1.73 1.73 0 0 0-2.214.129c-.17.168-.236.45-.327.687a1.378 1.378 0 0 0-.041.35l-.126.053c-.07-.116-.203-.234-.195-.346.047-.778.245-1.493 1.064-1.813.415-.17.846-.297 1.287-.38.621-.105 1.256-.131 1.883-.203.99-.112 1.435-.545 1.627-1.563a.668.668 0 0 1 .09-.172l.12.008c0 .412-.02.827 0 1.239.04.68-.35 1.123-.88 1.397-.365.19-.83.202-1.253.268a4.165 4.165 0 0 1-.635 0l-.035.101c.148.139.287.285.418.44a3.16 3.16 0 0 1 .648 1.889c.044 1.307-.57 2.222-1.633 2.855-.4.239-.915.277-1.353.462-.72.305-1.474.27-2.198.154-1.25-.2-2.435-.604-3.19-1.746-.293-.44-.548-.888-.538-1.44.01-.55-.086-1.122.05-1.636.24-.91.714-1.726 1.558-2.234.398-.205.806-.39 1.223-.551zm-35.432 6.102h5.3c.015.353.01.707-.017 1.06-.01.087-.215.213-.335.216-.683.02-1.366.01-2.052.01H9.482c-.406 0-.526-.121-.526-.517V1.72c0-.095.012-.19.02-.32h1.557V11.66c.021.198.06.393.115.585zm44.1-10.856h1.465c.009.189.025.356.025.521v9.755c0 .516.038.56.564.561h4.355c.167 0 .335.019.555.03 0 .366.013.701 0 1.037-.015.262-.235.235-.416.235h-6.228c-.243 0-.356-.085-.356-.34V1.569c.008-.06.02-.121.035-.181zm37.433.005h1.523c.008.147.022.271.022.4 0 3.763.002 7.525.007 11.286 0 .328-.098.475-.44.451-.28-.019-.567.028-.84-.019-.117-.02-.293-.199-.293-.306 0-1.776.018-3.554.024-5.33V2.355l-.003-.963z" fill="#3A3A3A"/></svg>
